X:829
T:Rakes of Mallow, The
T:Rigs of Marlow, The
S:Sessions etc
Z:Nigel Gatherer
M:4/4
L:1/8
K:G
G2B2 G2B2 | G2B2 cBAG | F2A2 F2A2 | F2A2 dcBA |
G2B2 G2B2 | G2B2 d4   | cBAG FGAB | G2G2 G4  :|
g2fe d2c2 | B2c2 d4   | g2fe d2c2 | B2c2 A4   |
g2fe d2c2 | B2c2 d4   | cBAG FGAB | G2G2 G4  :|
